X:5717
T:S hölzane Pfaa - schottisch/schottische/scottish
O:england
B:nach: Alt Egerländer Tänze, E. Baumann
N:please mail errors to: simon.wascher@chello.at
M:2/4
L:1/16
K:D
de|f2A2A2 df|e2B2B2 gf|edcB AGFE|B2A2A2 de|
f2A2A2 df|e2B2B2 gf|edcB AGFE|D2F2D2:|
|:z2|EFG2G4|DEF2F4|AAAE G2G2|GGGD F2F2|
EFG2G4|DEF2F4|EFG2 ABc2|d2f2d2:|
|:GA|B2D2B2 GB|A2E2 A2z2|e2F2 e2F2|BAGF G2GA|
B2D2 B2GB|A2E2 A2AG|F2fe dcBA|G2B2G2:|
|:z2|GAB2B4|FGA2A4|c2B2 G2E2|B2A2 F2D2|
GAB2B4|FGA2A4|cBA2 ABc2|d2d2d2:|


